svg/fluentui-system-icons/ic_fluent_arrow_export_ltr_20_filled.svg

<svg width="20" height="20" viewBox="0 0 20 20" fill="none" xmlns="http://www.w3.org/2000/svg">
<path d="M2.75 3.75C3.16421 3.75 3.5 4.08579 3.5 4.5V15.5C3.5 15.9142 3.16421 16.25 2.75 16.25C2.33579 16.25 2 15.9142 2 15.5V4.5C2 4.08579 2.33579 3.75 2.75 3.75ZM5 10C5 9.58579 5.33579 9.25 5.75 9.25H15.9393L13.2197 6.53033C12.9268 6.23744 12.9268 5.76256 13.2197 5.46967C13.5126 5.17678 13.9874 5.17678 14.2803 5.46967L18.277 9.46634C18.2891 9.47836 18.3009 9.49079 18.3122 9.50361C18.3626 9.56051 18.4028 9.62323 18.4329 9.68943C18.476 9.78406 18.5 9.88923 18.5 10C18.5 10.1122 18.4753 10.2187 18.4312 10.3143C18.4019 10.3778 18.3633 10.438 18.3153 10.4929C18.3029 10.5071 18.29 10.5208 18.2766 10.534L14.2803 14.5303C13.9874 14.8232 13.5126 14.8232 13.2197 14.5303C12.9268 14.2374 12.9268 13.7626 13.2197 13.4697L15.9393 10.75H5.75C5.33579 10.75 5 10.4142 5 10Z" fill="#212121"/>
</svg>

<svg xmlns="http://www.w3.org/2000/svg" width="20" height="20"><path d="M2.75 3.75a.75.75 0 0 1 .75.75v11a.75.75 0 0 1-1.5 0v-11a.75.75 0 0 1 .75-.75ZM5 10a.75.75 0 0 1 .75-.75h10.19l-2.72-2.72a.75.75 0 0 1 1.06-1.06l3.997 3.996a.775.775 0 0 1 .156.223.747.747 0 0 1-.156.845L14.28 14.53a.75.75 0 1 1-1.06-1.06l2.72-2.72H5.75A.75.75 0 0 1 5 10Z"/></svg>
